flaticon/arrows/return.svg

<svg xmlns="http://www.w3.org/2000/svg" width="32" height="32" viewBox="0 0 24 24">
    <path d="M 22.710938 22.992188 L 10.636719 22.992188 C 5.644531 22.992188 1.582031 18.929688 1.582031 13.9375 C 1.582031 8.945312 5.644531 4.882812 10.636719 4.882812 L 21.496094 4.882812 L 18.332031 8.050781 L 19.042969 8.761719 L 23.066406 4.738281 C 23.066406 4.734375 23.066406 4.734375 23.066406 4.734375 L 23.421875 4.378906 L 19.042969 0 L 18.332031 0.710938 L 21.496094 3.878906 L 10.636719 3.878906 C 5.089844 3.878906 0.578125 8.390625 0.578125 13.9375 C 0.578125 19.488281 5.089844 24 10.636719 24 L 22.710938 24 C 22.988281 24 23.214844 23.773438 23.214844 23.496094 C 23.214844 23.21875 22.988281 22.992188 22.710938 22.992188 Z M 22.710938 22.992188"/>
</svg>

<svg xmlns="http://www.w3.org/2000/svg" width="32" height="32" viewBox="0 0 24 24">
    <path d="M22.71 22.992H10.638c-4.992 0-9.055-4.062-9.055-9.055 0-4.992 4.063-9.054 9.055-9.054h10.86L18.331 8.05l.711.71 4.023-4.023v-.004l.356-.355L19.043 0l-.711.71 3.164 3.169h-10.86C5.09 3.879.579 8.39.579 13.937.578 19.489 5.09 24 10.637 24H22.71a.505.505 0 0 0 0-1.008zm0 0"/>
</svg>
